!!!ONB: MCCC : IJH0415_02 : Extracted Monophonic Melody
!!!COM: Haydn, Joseph
!!!OPR: String Quartet in C major
!!!OMV: 2
!!!SCT: Hob.III:6 ; Op.1 No.6
!!!ODT: 1757///
**kern
*thru
*k[]
*C:
*clefF
*M3/4
2cc
12dd
12ee
12ff
=1
8ff
8ee
8aa
8gg
4gg
=2
4ccc
8.ccc
16bb
8.aa
16gg
=3
2ff
4ee
=4
2.r
=5
2.r
=6
2.r
=7
2.r
=8
16ff#
8.gg
16bb
8.gg
16ff#
8.ee
=9
4.dd
8cc
4b
=10
12gg
12ff#
12gg
12bb
12aa
12gg
12ff#
12ee
12dd
=11
4.dd
8cc
4b
=12
8.a
16b
4g
4f#
=13
2g
4r
=14
2gg
8eee
8gg
=15
4ff
2r
=16
2ff
8ddd
8ff
=17
4ee
2r
=18
4.aa
16bb
16ccc
4gg
=19
4.ff
16gg
16aa
4ee
=20
8ee
8dd
12aa
12gg
12ff
12ee
12dd
12cc
=21
2b
4r
=22
2cc
12dd
12ee
12ff
=23
8ff
8ee
8aa
8gg
4gg
=24
4ccc
8.ccc
16bb
8.aa
16gg
=25
2ff
4ee
=26
2.r
=27
2.r
=28
2.r
=29
2.r
=30
16ff#
8.gg
16aa
8.gg
16ff#
8.gg
=31
4.dd
16ee
16ff
4ee
=32
12gg
12aa
12gg
12ccc
12bb
12aa
12gg
12ff
12ee
=33
4.dd
16ee
16ff
8.ee
16ff
=34
8gg
8ee
4cc
4b
=35
2cc
4r
=36
4ff
4ff
4ff
=37
12aa
12gg
12ff
4ff
4r
=38
2.r
=39
2.r
=40
4b-
4b-
8.r
16cc
=41
8b-
8a
4a
8.r
16dd
=42
4cc
4f
4e
=43
4f
2r
=44
4ee
4ee
4ee
=45
12ff
12gg
12aa
4aa
4r
=46
2.r
=47
2.r
=48
4ddd
4ddd
4ddd
=49
12ee
12ff
12gg
4ff
4r
=50
4bb-
4bb-
8.r
16ccc
=51
8bb-
8aa
4aa
4r
=52
2r
4c
=53
4c
4..r
16ff
=54
8dd
16cc
16b-
4a
4g
=55
4f
2r
==
*-
